X:0029
T:The Bath Medley
M:6/8
L:1/8
Q:3/8=120
I: :: ::
Z:Jack Campin * www.campin.me.uk * 2009
K:G
D|G2g fed|efg dBG|ecA dBG|F2G AF
D|G2g fed|efg dBG|ecA dBG|DEF G2:|
g|f2g afd|e2f g3 |B2c dBG|F2G AF
D|G2g fed|efg dBG|ecA dBG|DEF G2:|

